X:412
T: ZUM DONNER ZUM DONNER
N: E0338
O: Europa, Mitteleuropa, Deutschland
R: historisches Lied, Krieg gegen Franzosen (1792)
M: 3/4
L: 1/8
K: F
F2 | A4F2 | A4F2 | A4B2 | c4
A2 | G4G2 | c4B2 | A4G2 | F4
F2 | A4F2 | A4F2 | A4B2 | c4
A2 | G4G2 | c4B2 | A4G2 | F4
F2 | G2G2A2 | B2B2G2 | A4f2 | c4
A2 | G4A2 | B2B2G2 | A4f2 | c4
FG | A2A2F2 | A2A2F2 | A2A2B2 | c4
A2 | G4G2 | c4B2 | A4G2 | F4

